img/ntek-logo.svg

<svg width="176" height="57" viewBox="0 0 176 57" fill="none" xmlns="http://www.w3.org/2000/svg">
<path d="M176 0C173.4 14.669 170.985 29.1072 168.228 43.473C166.894 50.4296 162.353 54.6887 155.392 56.0691C152.783 56.5851 150.098 56.9517 147.444 56.9562C113.906 57.0151 80.3677 57.006 46.8338 56.9789C45.0227 56.9789 43.216 56.7118 40.4316 56.4946C41.0894 52.8963 41.6301 49.7507 42.2428 46.6187C44.4955 35.0726 46.7392 23.5266 49.0505 11.9941C50.9428 2.55724 52.2313 1.4755 61.7468 1.47098C92.4017 1.44382 123.061 1.54339 153.716 1.39403C160.826 1.35783 167.931 0.529552 176 0ZM158.753 48.755C154.554 42.1152 150.445 35.6112 146.305 29.0665C153.536 22.2638 160.285 15.9137 167.286 9.32373C152.68 4.1821 147.634 17.267 138.474 22.8884C139.344 17.8237 140.096 13.447 141.2 7.03353C136.312 8.56335 130.234 8.92996 129.675 10.8852C126.093 23.4587 123.719 36.3807 120.944 49.2257C128.329 50.3361 132.746 47.8135 134.194 41.6581C134.636 39.7843 135.181 37.9376 135.996 34.8825C141.155 44.3828 145.111 54.3266 158.753 48.755ZM124.57 8.30084C115.451 8.30084 106.842 8.21031 98.2407 8.40041C96.9522 8.42757 94.7986 9.57267 94.5598 10.5684C91.4871 23.4406 88.6847 36.3807 85.6841 49.8955C94.1904 49.8955 101.566 49.8955 108.937 49.8955C117.92 49.8955 118.731 48.9767 117.979 38.9153H100.083C99.7906 33.0676 103.368 33.6333 106.684 33.6288C115.451 33.6152 115.451 33.5835 116.632 24.1602C112.275 23.8841 107.95 23.6035 103.625 23.3274C103.363 22.7481 103.098 22.1642 102.836 21.5849C104.323 20.5937 105.702 19.0458 107.315 18.7425C109.901 18.2582 112.636 18.6022 115.312 18.5977C121.178 18.5886 124.263 15.1563 124.566 8.30084H124.57ZM58.8183 49.194C69.7034 51.0723 69.9016 50.9637 72.0958 41.2417C73.4519 35.2265 75.0468 29.2385 75.9389 23.1509C76.4841 19.426 78.0339 18.5343 81.5256 18.5162C90.7302 18.4664 90.7302 18.308 91.4826 8.28273C81.6518 8.28273 71.8615 8.27368 62.0712 8.28273C53.8803 8.29178 53.0018 9.29658 53.5514 18.3171C57.2189 18.5524 60.9403 18.7923 65.1484 19.0639C62.9272 29.6549 60.8773 39.4177 58.8228 49.194H58.8183Z" fill="#707070"/>
<path d="M43.5044 9.81716C40.702 22.4449 38.1024 34.6925 35.0973 46.836C34.7999 48.0399 31.8534 49.5109 30.3801 49.2801C27.9066 48.8908 24.469 47.8498 23.4823 45.9896C20.5402 40.4542 18.5939 34.3802 14.7778 28.4873C13.71 33.1491 12.6602 37.82 11.5744 42.4774C9.81732 50.0088 9.08294 50.4252 0 48.4563C2.75281 36.0956 5.3975 23.6941 8.45218 11.3968C8.74053 10.2336 11.8403 8.78521 13.2459 9.12014C15.2644 9.59538 17.7379 11.1976 18.5984 13.0035C21.572 19.2359 23.9283 25.7626 28.0282 32.0266C29.2672 26.6904 30.5558 21.3677 31.7272 16.0179C33.3852 8.45933 34.034 8.03388 43.4999 9.81263L43.5044 9.81716Z" fill="#707070"/>
</svg>

<svg width="176" height="57" fill="none" xmlns="http://www.w3.org/2000/svg"><path d="M176 0c-2.6 14.669-5.015 29.107-7.772 43.473-1.334 6.957-5.875 11.216-12.836 12.596-2.609.516-5.294.883-7.948.887-33.538.06-67.076.05-100.61.023-1.811 0-3.618-.267-6.402-.484.657-3.599 1.198-6.744 1.81-9.876 2.254-11.546 4.497-23.092 6.809-34.625 1.892-9.437 3.18-10.518 12.696-10.523 30.655-.027 61.314.072 91.969-.077C160.826 1.358 167.931.53 176 0zm-17.247 48.755c-4.199-6.64-8.308-13.144-12.448-19.689 7.231-6.802 13.98-13.152 20.981-19.742-14.606-5.142-19.652 7.943-28.812 13.564.87-5.064 1.622-9.441 2.726-15.854-4.888 1.53-10.966 1.896-11.525 3.851-3.582 12.574-5.956 25.496-8.731 38.34 7.385 1.111 11.802-1.412 13.25-7.567.442-1.874.987-3.72 1.802-6.776 5.159 9.5 9.115 19.445 22.757 13.873zM124.57 8.301c-9.119 0-17.728-.09-26.33.1-1.288.027-3.441 1.172-3.68 2.167-3.073 12.873-5.875 25.813-8.876 39.328h23.253c8.983 0 9.794-.92 9.042-10.98h-17.896c-.292-5.848 3.285-5.283 6.601-5.287 8.767-.014 8.767-.045 9.948-9.469-4.357-.276-8.682-.556-13.007-.833l-.789-1.742c1.487-.991 2.866-2.54 4.479-2.843 2.586-.484 5.321-.14 7.997-.144 5.866-.01 8.951-3.442 9.254-10.297h.004zM58.818 49.194c10.885 1.878 11.084 1.77 13.278-7.952 1.356-6.015 2.95-12.003 3.843-18.091.545-3.725 2.095-4.617 5.587-4.635 9.204-.05 9.204-.208 9.957-10.233-9.831 0-19.621-.01-29.412 0-8.19.009-9.07 1.014-8.52 10.034 3.668.235 7.39.475 11.597.747a74347.015 74347.015 0 01-6.325 30.13h-.005zM43.504 9.817c-2.802 12.628-5.402 24.876-8.407 37.019-.297 1.204-3.244 2.675-4.717 2.444-2.473-.39-5.911-1.43-6.898-3.29-2.942-5.536-4.888-11.61-8.704-17.503-1.068 4.662-2.118 9.333-3.204 13.99C9.817 50.01 9.083 50.425 0 48.457c2.753-12.361 5.397-24.763 8.452-37.06.289-1.163 3.388-2.612 4.794-2.277 2.018.475 4.492 2.078 5.352 3.884 2.974 6.232 5.33 12.759 9.43 19.023 1.24-5.337 2.528-10.66 3.7-16.01C33.384 8.46 34.033 8.035 43.5 9.814l.004.004z" fill="#707070"/></svg>
